assets/icons/network/receive.svg

<?xml version="1.0" encoding="UTF-8" standalone="no"?>
<svg
   viewBox="0 0 24 24"
   height="24"
   id="svg7384"
   version="1.1"
   width="24"
   sodipodi:docname="receive.svg"
   inkscape:version="1.2 (1:1.2.1+202207142221+cd75a1ee6d)"
   xmlns:inkscape="http://www.inkscape.org/namespaces/inkscape"
   xmlns:sodipodi="http://sodipodi.sourceforge.net/DTD/sodipodi-0.dtd"
   xmlns="http://www.w3.org/2000/svg"
   xmlns:svg="http://www.w3.org/2000/svg"
   xmlns:rdf="http://www.w3.org/1999/02/22-rdf-syntax-ns#"
   xmlns:cc="http://creativecommons.org/ns#"
   xmlns:dc="http://purl.org/dc/elements/1.1/">
  <sodipodi:namedview
     id="namedview22"
     pagecolor="#ffffff"
     bordercolor="#666666"
     borderopacity="1.0"
     inkscape:pageshadow="2"
     inkscape:pageopacity="0.0"
     inkscape:pagecheckerboard="0"
     showgrid="true"
     inkscape:zoom="19.798915"
     inkscape:cx="-0.73236337"
     inkscape:cy="14.672521"
     inkscape:window-width="1920"
     inkscape:window-height="1016"
     inkscape:window-x="0"
     inkscape:window-y="0"
     inkscape:window-maximized="1"
     inkscape:current-layer="svg7384"
     inkscape:showpageshadow="2"
     inkscape:deskcolor="#d1d1d1">
    <inkscape:grid
       type="xygrid"
       id="grid463" />
  </sodipodi:namedview>
  <metadata
     id="metadata20854">
    <rdf:RDF>
      <cc:Work
         rdf:about="">
        <dc:format>image/svg+xml</dc:format>
        <dc:type
           rdf:resource="http://purl.org/dc/dcmitype/StillImage" />
      </cc:Work>
    </rdf:RDF>
  </metadata>
  <defs
     id="defs7386">
    <linearGradient
       id="linearGradient5606"
       inkscape:swatch="solid">
      <stop
         id="stop5608"
         offset="0"
         style="stop-color:#000000;stop-opacity:1;" />
    </linearGradient>
    <linearGradient
       id="linearGradient4526"
       inkscape:swatch="solid">
      <stop
         id="stop4528"
         offset="0"
         style="stop-color:#ffffff;stop-opacity:1;" />
    </linearGradient>
    <linearGradient
       id="linearGradient3600-4"
       inkscape:swatch="gradient">
      <stop
         id="stop3602-7"
         offset="0"
         style="stop-color:#f4f4f4;stop-opacity:1" />
      <stop
         id="stop3604-6"
         offset="1"
         style="stop-color:#dbdbdb;stop-opacity:1" />
    </linearGradient>
  </defs>
  <path
     id="path571"
     style="color:#000000;fill:#808080;-inkscape-stroke:none"
     d="M 14.603516 2.4101562 L 14.40625 2.6601562 C 14.40625 2.6601562 13.622066 3.6632758 10.154297 8.3515625 L 9.859375 8.75 L 12.25 8.75 L 12.25 11 L 12 11 L 12 16 L 13.648438 16 C 11.542282 18.836714 10.521454 20.190787 10.398438 20.349609 C 10.27556 20.191085 9.2531882 18.837284 7.1464844 16 L 9 16 L 9 10 L 8 10 L 8 15 L 5.15625 15 L 5.7460938 15.796875 C 9.2144695 20.485983 10.003906 21.494141 10.003906 21.494141 L 10.398438 21.996094 L 10.791016 21.494141 C 10.791016 21.494141 11.578516 20.485958 15.046875 15.796875 L 15.636719 15 L 13 15 L 13 11 L 12.75 11 L 12.75 8.25 L 10.851562 8.25 C 13.590198 4.5541643 14.534447 3.316679 14.601562 3.2304688 C 14.668482 3.3163637 15.614304 4.5534927 18.353516 8.25 L 16.25 8.25 L 16.25 14 L 16.75 14 L 16.75 8.75 L 19.347656 8.75 L 19.052734 8.3515625 C 15.584958 3.663263 14.798828 2.6601563 14.798828 2.6601562 L 14.603516 2.4101562 z " />
</svg>

<svg height="24" width="24" xmlns="http://www.w3.org/2000/svg"><path style="color:#000;fill:gray;-inkscape-stroke:none" d="m14.604 2.41-.198.25s-.784 1.003-4.252 5.692l-.295.398h2.391V11H12v5h1.648a544.288 544.288 0 0 1-3.25 4.35A511.064 511.064 0 0 1 7.146 16H9v-6H8v5H5.156l.59.797c3.468 4.689 4.258 5.697 4.258 5.697l.394.502.393-.502s.788-1.008 4.256-5.697l.59-.797H13v-4h-.25V8.25h-1.898c2.738-3.696 3.682-4.933 3.75-5.02.066.086 1.012 1.323 3.752 5.02H16.25V14h.5V8.75h2.598l-.295-.398c-3.468-4.689-4.254-5.692-4.254-5.692l-.195-.25z"/></svg>
